images_breeze_svg/cmd/32/newwindow.svg

<svg height="32" viewBox="0 0 32 32" width="32" xmlns="http://www.w3.org/2000/svg"><path d="m5 5v1.33333 19.66667 1h1 2.99999v-1h-2.99999v-15.99998l20-.00002v2.99998l1 .00002v-8l-1-.00002zm5 9v5.00002 2.66666 2.99999 1.33333 1h5.66664 11.33336v-1-6.99998-5.00002l-1-.00002h-1.33333zm1 5h15v6.99998l-10.33336.00002-4.66664-.00002v-4.33332z" fill="#4d4d4d" stroke-width="1.33333"/></svg>

<?xml version="1.0" encoding="UTF-8" standalone="no"?>
<svg
   xmlns:dc="http://purl.org/dc/elements/1.1/"
   xmlns:cc="http://creativecommons.org/ns#"
   xmlns:rdf="http://www.w3.org/1999/02/22-rdf-syntax-ns#"
   xmlns:svg="http://www.w3.org/2000/svg"
   xmlns="http://www.w3.org/2000/svg"
   xmlns:sodipodi="http://sodipodi.sourceforge.net/DTD/sodipodi-0.dtd"
   xmlns:inkscape="http://www.inkscape.org/namespaces/inkscape"
   viewBox="0 0 32 32"
   version="1.1"
   id="svg4"
   sodipodi:docname="newwindow.svg"
   width="32"
   height="32"
   inkscape:version="0.92.4 (unknown)"
   inkscape:export-filename="/home/rizmut/Dokumen/Rizmut/Github/tmp/breeze/cmd/32/newwindow.png"
   inkscape:export-xdpi="96"
   inkscape:export-ydpi="96">
  <metadata
     id="metadata10">
    <rdf:RDF>
      <cc:Work
         rdf:about="">
        <dc:format>image/svg+xml</dc:format>
        <dc:type
           rdf:resource="http://purl.org/dc/dcmitype/StillImage" />
        <dc:title></dc:title>
      </cc:Work>
    </rdf:RDF>
  </metadata>
  <defs
     id="defs8" />
  <sodipodi:namedview
     pagecolor="#ffffff"
     bordercolor="#666666"
     borderopacity="1"
     objecttolerance="10"
     gridtolerance="10"
     guidetolerance="10"
     inkscape:pageopacity="0"
     inkscape:pageshadow="2"
     inkscape:window-width="1360"
     inkscape:window-height="714"
     id="namedview6"
     showgrid="true"
     inkscape:zoom="9.8333333"
     inkscape:cx="23.072641"
     inkscape:cy="12.255762"
     inkscape:window-x="0"
     inkscape:window-y="28"
     inkscape:window-maximized="1"
     inkscape:current-layer="svg4">
    <inkscape:grid
       type="xygrid"
       id="grid817" />
  </sodipodi:namedview>
  <path
     d="M 5,5 V 6.33333 26 27 H 6 8.99999 V 26 H 6 L 6,10.00002 26,10 26,12.99998 27,13 V 5 l -1,-2e-5 z m 5,9 v 5.00002 2.66666 2.99999 V 26 27 H 15.66664 27 V 26 19.00002 14 l -1,-2e-5 h -1.33333 z m 1,5 h 15 v 6.99998 L 15.66664,26 11,25.99998 v -4.33332 z"
     id="path2"
     inkscape:connector-curvature="0"
     style="fill:#4d4d4d;stroke-width:1.33333004"
     sodipodi:nodetypes="cccccccccccccccccccccccccccccccccccc" />
</svg>
